X:4
T:Kinrara Strathspey
C:William Marshall
R:strathspey
S:1822 Collection p2
B:Athole Collection
D:Joe MacLean 78
N:In Gow's 4th as "The Countess of Dalkeith" 
Z:Paul Stewart Cranford (P.S.C.), <http://www.cranfordpub.com>
M:C
L:1/8
Q:244
K:Bb
F|B>cBd FB G/F/E/D/|B<FB>d c<CCA|B>cBd FB G/F/E/D/|E<g f>e dBB:|
||f|df e/d/c/B/ bBeg|fg e/d/c/B/ d<c cd/e/|fBdB gBeg|
F>B cB/c/ dBBd|fg/a/ bB gBfB|e>cdB Accd|B<FGe d<B B|]
